X:321
%%etbk:tnset id:98,pos:3,rep:3x,ant:
%%etbk:tnset id:257,pos:10,rep:3x,ant:
%%etbk:tnset id:513,pos:1,rep:3x,ant:
%%etbk:wsite http://www.thesession.org/tunes/display/111
%%etbk:pldat 2016-06-23T18:15,2016-06-22T15:16,2016-06-21T15:57,2016-06-18T15:54,2016-05-05T15:18,2016-05-04T15:50,2016-05-04T14:09,2016-05-03T15:39,2016-03-11T15:40,2016-03-09T15:51,2016-03-08T15:07,2016-02-29T19:36,2016-02-23T16:59,2015-11-02T18:22,2015-10-27T16:54,2015-10-25T14:52,2015-10-21T16:29,2015-10-07T15:43,2015-06-23T18:29,2015-03-13T17:55,2015-03-10T16:22,2015-03-05T18:02,2015-02-04T16:50,2014-11-06T18:09,2014-11-04T16:36,2014-11-02T14:09,2014-10-29T16:05,2014-10-28T15:59,2014-10-25T15:02,2014-08-21T18:27,2014-08-20T18:44,2014-06-25T16:26,2014-06-22T16:07,2014-03-05T19:26,2014-03-02T16:36,2014-02-26T17:03,2014-02-16T13:40,2013-10-30T17:24,2013-10-29T17:26,2013-10-27T14:12,2013-10-23T18:16,2013-10-16T15:49,2013-10-11T18:12,2013-10-07T18:10
T: Tripping Up The Stairs
Z: Piano Box Version by Martin Fleischmann
H: Created 2013-02-19 /  Last Modified 2013-02-19
M: 6/8
L: 1/8
R: jig
K: Dmaj
|: "D"!2!F!3!AA !1!G!4!B!3!A | !2!F!1!A!3!d !5!fed | "A"!2!c!4!e!2!c !1!AB!3!c | "D"!1!d!3!fe !1!d!2!B!1!A |
"D"!2!F2!3!A !1!G!4!B!3!A | !2!F!1!A!3!d !5!fed | "A"!2!c{e}cc !1!ABc | "D"!1!dfe d3 :|
|: "bm"!2!d!1!BB !3!f!1!BB | !3!fgf fe!1!d | "f#m"{e}!2!c!1!AA !2!e!1!AA | !2!efe e!1!d!2!c |
"bm"!3!d!1!BB !3!f!1!BB | !3!fgf fe!1!d | "A"!2!c!4!e!2!c !1!AB!3!c | "D"!1!dfe d3 :|


